icons/1_Primary/JFrog.svg

<svg xmlns="http://www.w3.org/2000/svg" width="1024" height="1024" fill="none">
   <g clip-path="url(#a)">
      <path fill="#71A372" d="M512 1024c282.77 0 512-229.23 512-512S794.77 0 512 0 0 229.23 0 512s229.23 512 512 512Z"/>
      <path fill="#fff" d="m479.41 582.11-27.89 7.82c2.55 7.1 4.41 19.83 4.41 36.72v83.67h31.16v-88.56c5.8-7.1 12.08-10.53 19.06-10.53a17.01 17.01 0 0 1 9.07 2.45l8.59-28.87c-4.88-2.2-7-2.7-11.63-2.7a26.528 26.528 0 0 0-10.23 2c-5.8 2.94-13.24 9.53-17.66 15.9a41.804 41.804 0 0 0-4.88-17.86v-.04Zm-108.19-41.35h-3.39v169.56h32.56V635.2h41.13v-27.89h-41.13V568.4h51.36l2-14.81a548.005 548.005 0 0 1-82.52-12.84l-.01.01ZM295 732.82l15.11 17.63c14.64-5.88 33-19.1 37.67-39.89 1.63-6.84 2.31-11.26 2.31-33.28V541.14h-33V681c0 18.34-.7 25.2-3.26 31.32-3.06 6.81-10.51 15.14-18.83 20.5Zm296.46-85.88c0 29.6-5.81 42.32-19.29 42.32-6.05 0-13-3.41-15.81-10.26-2.55-6.36-4-17.14-4-31.56 0-12.49 1.15-21.28 3.25-27.89 2.55-7.83 8.6-12.73 16-12.73a16.357 16.357 0 0 1 13.48 6.61c4.18 5.63 6.28 16.65 6.28 33.52l.09-.01Zm19.06 48.7c10.23-12.24 14.88-26.93 14.88-48.45 0-20.32-4.2-34-13.73-45.76-10.21-12.71-23.47-18.83-40.45-18.83-32.07 0-53.46 26.18-53.46 65.57 0 39.39 21.11 64.83 53.43 64.83 18.38 0 30.23-6.61 39.3-17.36h.03Zm89.26-70.24c0 11.5-6.75 17.87-19.06 17.87-10.93 0-18.38-5.14-18.38-17.87 0-11.73 6.75-18.59 18.61-18.59s18.8 6.86 18.8 18.59h.03Zm55.08-26.67-13-20.79c-7.2 6.85-16.05 10.77-24.64 10.77-4 0-6.05-.51-14.65-2.69a72.588 72.588 0 0 0-21.39-3.18c-30.46 0-50.2 16.63-50.2 42.33 0 18.59 8.36 30.09 25.57 34.75-7 1.71-14.65 5.37-18.13 9.53-2.55 2.94-3.73 6.85-3.73 11.5a23.68 23.68 0 0 0 2.31 10.29 14.998 14.998 0 0 0 6.75 6.1c5.58 2.22 14.65 3.69 28.59 3.92 7.2 0 11.63.24 13.25.24 8.6.49 13 2 16.26 3.69 3.26 1.94 5.58 6.35 5.58 11.25s-3 9.79-7.43 12.73c-4.18 2.92-10.93 4.14-19.76 4.14-14.43 0-22.31-5.37-22.31-15.4a18.764 18.764 0 0 1 1.38-8.08h-28.84a26.292 26.292 0 0 0-2.8 12.73c0 8.57 3.27 15.9 9.78 22.26 10.69 10.53 28.13 13.46 45.1 13.46 18.59 0 36.49-4.41 47-16.15 6.51-7.35 9.53-15.4 9.53-25.93 0-11.26-3.26-19.83-10.23-26.67-8.36-8.08-17.89-11-36-11.26L676 678c-3.25 0-5.1-1.23-5.1-2.94 0-3.43 4.42-6.36 12.33-10.26 1.543.179 3.096.26 4.65.24 25.34 0 43.92-15.67 43.92-37.21a31.223 31.223 0 0 0-7-20.55c2.711.446 5.452.687 8.2.72 8.6 0 15.11-2.7 21.86-9.3v.03ZM363 393.49c-39 9.53-65.43 28.17-65.43 49.63 0 13.27 10.16 25.46 27.1 35.08-5.09-8.15-7.87-16.71-7.87-25.57 0-22.31 17.27-42.83 46.2-59.14Zm411 83.81c0-14.06-8.67-27.1-23.42-37.8a44.296 44.296 0 0 1 2.08 13.13c0 40.29-56.27 74.75-136 89a250.438 250.438 0 0 0 28 1.57c71.45 0 129.36-29.52 129.36-65.94l-.02.04Zm-46-21.91c0-14.78-12.66-28.47-34.22-39.77 5.05 6.12 7.8 12.64 7.8 19.41 0 35.71-76.09 64.67-169.93 64.67s-169.92-29-169.92-64.67a27.478 27.478 0 0 1 3.57-13.24c-15.07 10-23.67 21.42-23.67 33.59 0 38.66 86.48 70 193.19 70S728 494 728 455.38v.01Zm-84.39-1.73c-39.36 25.44-160.63 35-212.86 2.41-40.93-25.58-26.89-66.13-144-155.49-15.3-11.68 2.83-24.08 14.3-16.14 11.47 7.94 1 10.06 24.1 33.21 46.7 46.74 46.25 4.72 53.63 20.61 15.51 33.42 49.73 67.08 49.73 67.08 34.29 22.31 61.65 27.17 112.21-7 32.07-21.7 19 34.5 97.59-6 28.68-14.78 27.49-5 56.64-45.6 12.1-16.87 35.24 13 9 17.1-10.49 1.66-28.2 13.13-35.81 31.27-10.74 26.81-6.09 46.65-24.55 58.58l.02-.03Zm-218.52-68.72c-9.72-4.29-19.9-20.84-23.87-27.49 10.88-10.65 6.47-28.47.33-38.26s-13.59-7-21.75-16 3.08-32.42 13.55-14.41c39.21 67.46 64.95 39.4 97 35.37 30.74-3.86 57.91 12.89 66.26-34.53 1.36-7.76 8.9-9.62 9.67 3.22.77 12.84 5.6 44 22.49 48.09 16.89 4.09 30.32-4 34.29-8.39 3.97-4.39 6-3.79 7.76 7.2 1.76 10.99 6 26.21 29.75 9.28 48.54-34.64 34.64-48 53.5-56.93 10.75-5.07 27.68 11.42 3.2 23.8-35 17.7-38.71 39.68-60.83 53.63-37.18 23.48-25.81.95-85.63-7.57-23-3.29-30.44 22.4-48.42 15-41.48-17.14-70.42-13.85-97.28 8l-.02-.01Zm129.64-125c1.36 10.12 3.06 9.88 6.7 10.82 3.64.94 8.22-4.77 8.38-10.3.16-5.53-2.36-9-7.83-8.83-5.47.17-7.41 3-7.24 8.31h-.01ZM735 278.32c4.35 4.25 16 1.38 18.69-1.66 7-7.8 7.2-12.5 3.62-17.73s-11.19-4.26-18.71 1.19c-7.52 5.45-6.09 15.79-3.6 18.2Zm-3.27 51.51c-3.74 5-3.85 8.48-1.19 11.22 2.83 2.92 8.71 5.46 12.94 2.08 4.23-3.38 4.21-8.22.63-12.52-3.58-4.3-8.5-4.29-12.39-.78h.01Zm-369.5-60.9c5.7 1.75 8.2 7 13 1 2.38-3 2.61-6.94-.54-11.4-2-2.78-11.25-4.7-15.18-.73-3.93 3.97-.35 10.19 2.71 11.14l.01-.01Zm-114.31-3.41c10.21 6.26 16.91 15.74 24.6 7.28 2.59-2.82 5.82-8.15.24-18.36-4.07-7.47-17.5-10.53-22.24-7.66-4.74 2.87-10.53 13.88-2.61 18.74h.01ZM342.29 314c3.25 3.38 8.78 3.1 12.09 1.28 3.31-1.82 2.61-7-.56-11.42-2-2.78-7.87-4.07-11.81-.11-3.94 3.96-2.01 7.85.28 10.25Z"/>
   </g>
   <defs>
      <clipPath id="a">
         <path fill="#fff" d="M0 0h1024v1024H0z"/>
      </clipPath>
   </defs>
</svg>

<svg width="1024" height="1024" viewBox="0 0 1024 1024" fill="none" xmlns="http://www.w3.org/2000/svg">
<g clip-path="url(#clip0_2_2556)">
<path d="M512 1024C794.77 1024 1024 794.77 1024 512C1024 229.23 794.77 0 512 0C229.23 0 0 229.23 0 512C0 794.77 229.23 1024 512 1024Z" fill="#71A372"/>
<path d="M479.41 582.11L451.52 589.93C454.07 597.03 455.93 609.76 455.93 626.65V710.32H487.09V621.76C492.89 614.66 499.17 611.23 506.15 611.23C509.343 611.179 512.487 612.028 515.22 613.68L523.81 584.81C518.93 582.61 516.81 582.11 512.18 582.11C508.671 582.094 505.194 582.773 501.95 584.11C496.15 587.05 488.71 593.64 484.29 600.01C484.019 593.767 482.351 587.664 479.41 582.15V582.11ZM371.22 540.76H367.83V710.32H400.39V635.2H441.52V607.31H400.39V568.4H451.75L453.75 553.59C425.957 551.415 398.37 547.123 371.23 540.75L371.22 540.76ZM295 732.82L310.11 750.45C324.75 744.57 343.11 731.35 347.78 710.56C349.41 703.72 350.09 699.3 350.09 677.28V541.14H317.09V681C317.09 699.34 316.39 706.2 313.83 712.32C310.77 719.13 303.32 727.46 295 732.82ZM591.46 646.94C591.46 676.54 585.65 689.26 572.17 689.26C566.12 689.26 559.17 685.85 556.36 679C553.81 672.64 552.36 661.86 552.36 647.44C552.36 634.95 553.51 626.16 555.61 619.55C558.16 611.72 564.21 606.82 571.61 606.82C574.221 606.765 576.808 607.336 579.154 608.486C581.499 609.636 583.534 611.332 585.09 613.43C589.27 619.06 591.37 630.08 591.37 646.95L591.46 646.94ZM610.52 695.64C620.75 683.4 625.4 668.71 625.4 647.19C625.4 626.87 621.2 613.19 611.67 601.43C601.46 588.72 588.2 582.6 571.22 582.6C539.15 582.6 517.76 608.78 517.76 648.17C517.76 687.56 538.87 713 571.19 713C589.57 713 601.42 706.39 610.49 695.64H610.52ZM699.78 625.4C699.78 636.9 693.03 643.27 680.72 643.27C669.79 643.27 662.34 638.13 662.34 625.4C662.34 613.67 669.09 606.81 680.95 606.81C692.81 606.81 699.75 613.67 699.75 625.4H699.78ZM754.86 598.73L741.86 577.94C734.66 584.79 725.81 588.71 717.22 588.71C713.22 588.71 711.17 588.2 702.57 586.02C695.639 583.898 688.429 582.826 681.18 582.84C650.72 582.84 630.98 599.47 630.98 625.17C630.98 643.76 639.34 655.26 656.55 659.92C649.55 661.63 641.9 665.29 638.42 669.45C635.87 672.39 634.69 676.3 634.69 680.95C634.677 684.51 635.466 688.027 637 691.24C638.564 693.923 640.923 696.055 643.75 697.34C649.33 699.56 658.4 701.03 672.34 701.26C679.54 701.26 683.97 701.5 685.59 701.5C694.19 701.99 698.59 703.5 701.85 705.19C705.11 707.13 707.43 711.54 707.43 716.44C707.43 721.34 704.43 726.23 700 729.17C695.82 732.09 689.07 733.31 680.24 733.31C665.81 733.31 657.93 727.94 657.93 717.91C657.789 715.148 658.26 712.389 659.31 709.83H630.47C628.483 713.771 627.52 718.149 627.67 722.56C627.67 731.13 630.94 738.46 637.45 744.82C648.14 755.35 665.58 758.28 682.55 758.28C701.14 758.28 719.04 753.87 729.55 742.13C736.06 734.78 739.08 726.73 739.08 716.2C739.08 704.94 735.82 696.37 728.85 689.53C720.49 681.45 710.96 678.53 692.85 678.27L676 678C672.75 678 670.9 676.77 670.9 675.06C670.9 671.63 675.32 668.7 683.23 664.8C684.773 664.979 686.326 665.06 687.88 665.04C713.22 665.04 731.8 649.37 731.8 627.83C732 620.363 729.516 613.072 724.8 607.28C727.511 607.726 730.252 607.967 733 608C741.6 608 748.11 605.3 754.86 598.7V598.73ZM363 393.49C324 403.02 297.57 421.66 297.57 443.12C297.57 456.39 307.73 468.58 324.67 478.2C319.58 470.05 316.8 461.49 316.8 452.63C316.8 430.32 334.07 409.8 363 393.49ZM774 477.3C774 463.24 765.33 450.2 750.58 439.5C751.93 443.747 752.631 448.174 752.66 452.63C752.66 492.92 696.39 527.38 616.66 541.63C625.957 542.676 635.305 543.2 644.66 543.2C716.11 543.2 774.02 513.68 774.02 477.26L774 477.3ZM728 455.39C728 440.61 715.34 426.92 693.78 415.62C698.83 421.74 701.58 428.26 701.58 435.03C701.58 470.74 625.49 499.7 531.65 499.7C437.81 499.7 361.73 470.7 361.73 435.03C361.782 430.386 363.01 425.831 365.3 421.79C350.23 431.79 341.63 443.21 341.63 455.38C341.63 494.04 428.11 525.38 534.82 525.38C641.53 525.38 728 494 728 455.38V455.39ZM643.61 453.66C604.25 479.1 482.98 488.66 430.75 456.07C389.82 430.49 403.86 389.94 286.75 300.58C271.45 288.9 289.58 276.5 301.05 284.44C312.52 292.38 302.05 294.5 325.15 317.65C371.85 364.39 371.4 322.37 378.78 338.26C394.29 371.68 428.51 405.34 428.51 405.34C462.8 427.65 490.16 432.51 540.72 398.34C572.79 376.64 559.72 432.84 638.31 392.34C666.99 377.56 665.8 387.34 694.95 346.74C707.05 329.87 730.19 359.74 703.95 363.84C693.46 365.5 675.75 376.97 668.14 395.11C657.4 421.92 662.05 441.76 643.59 453.69L643.61 453.66ZM425.09 384.94C415.37 380.65 405.19 364.1 401.22 357.45C412.1 346.8 407.69 328.98 401.55 319.19C395.41 309.4 387.96 312.19 379.8 303.19C371.64 294.19 382.88 270.77 393.35 288.78C432.56 356.24 458.3 328.18 490.35 324.15C521.09 320.29 548.26 337.04 556.61 289.62C557.97 281.86 565.51 280 566.28 292.84C567.05 305.68 571.88 336.84 588.77 340.93C605.66 345.02 619.09 336.93 623.06 332.54C627.03 328.15 629.06 328.75 630.82 339.74C632.58 350.73 636.82 365.95 660.57 349.02C709.11 314.38 695.21 301.02 714.07 292.09C724.82 287.02 741.75 303.51 717.27 315.89C682.27 333.59 678.56 355.57 656.44 369.52C619.26 393 630.63 370.47 570.81 361.95C547.81 358.66 540.37 384.35 522.39 376.95C480.91 359.81 451.97 363.1 425.11 384.95L425.09 384.94ZM554.73 259.94C556.09 270.06 557.79 269.82 561.43 270.76C565.07 271.7 569.65 265.99 569.81 260.46C569.97 254.93 567.45 251.46 561.98 251.63C556.51 251.8 554.57 254.63 554.74 259.94H554.73ZM735 278.32C739.35 282.57 751 279.7 753.69 276.66C760.69 268.86 760.89 264.16 757.31 258.93C753.73 253.7 746.12 254.67 738.6 260.12C731.08 265.57 732.51 275.91 735 278.32ZM731.73 329.83C727.99 334.83 727.88 338.31 730.54 341.05C733.37 343.97 739.25 346.51 743.48 343.13C747.71 339.75 747.69 334.91 744.11 330.61C740.53 326.31 735.61 326.32 731.72 329.83H731.73ZM362.23 268.93C367.93 270.68 370.43 275.93 375.23 269.93C377.61 266.93 377.84 262.99 374.69 258.53C372.69 255.75 363.44 253.83 359.51 257.8C355.58 261.77 359.16 267.99 362.22 268.94L362.23 268.93ZM247.92 265.52C258.13 271.78 264.83 281.26 272.52 272.8C275.11 269.98 278.34 264.65 272.76 254.44C268.69 246.97 255.26 243.91 250.52 246.78C245.78 249.65 239.99 260.66 247.91 265.52H247.92ZM342.29 314C345.54 317.38 351.07 317.1 354.38 315.28C357.69 313.46 356.99 308.28 353.82 303.86C351.82 301.08 345.95 299.79 342.01 303.75C338.07 307.71 340 311.6 342.29 314Z" fill="white"/>
</g>
<defs>
<clipPath id="clip0_2_2556">
<rect width="1024" height="1024" fill="white"/>
</clipPath>
</defs>
</svg>
